static/images/bgs/pre-footer.svg

<svg xmlns="http://www.w3.org/2000/svg" width="3347" height="2352" fill="none"><g filter="url(#a)" opacity=".55"><path fill="#FD366E" d="m361 1832.06 1786.43-432.66-949.24-302.04L361 1832.06Z"/></g><g filter="url(#b)" opacity=".55"><path fill="#FE9567" d="m1145.2 1850.86 779.64-639.59-422.14-217.915-357.5 857.505Z"/></g><g filter="url(#c)" opacity=".55"><path fill="url(#d)" d="m589.694 1613.32 1485.856-360.19-905.86-17.27-579.996 377.46Z"/></g><g filter="url(#e)" opacity=".4"><path fill="#fff" d="m1410.69 1242.96 598.94-3.28c78.8-.43 118.2-72.14 64.08-116.62l-232.04-190.705-430.98 310.605Z"/></g><g filter="url(#f)"><path fill="#FD366E" fill-opacity=".6" d="m1393.58 1069.56-491.627 567.18 835.397 214.75 268.07-482-611.84-299.93Z"/></g><g filter="url(#g)" opacity=".4"><path fill="#FD366E" fill-opacity=".6" d="m2056.15 501-634.63 732.16 1078.39 277.22 346.04-622.206L2056.15 501Z"/></g><g filter="url(#h)" opacity=".45" style="mix-blend-mode:soft-light"><ellipse cx="479.672" cy="45.906" fill="#EDEDF0" rx="479.672" ry="45.906" transform="matrix(-.95334 .30189 -.65607 -.7547 1738.88 1238.42)"/></g><g filter="url(#i)" opacity=".35" style="mix-blend-mode:overlay"><ellipse cx="376.561" cy="45.906" fill="#EDEDF0" rx="376.561" ry="45.906" transform="matrix(-.95334 .30189 -.65607 -.7547 1460.45 1323.44)"/></g><g filter="url(#j)" opacity=".45" style="mix-blend-mode:soft-light"><ellipse cx="376.561" cy="37.931" fill="#EDEDF0" rx="376.561" ry="37.931" transform="matrix(-.95334 .30189 -.65607 -.7547 1935.57 1332.57)"/></g><g filter="url(#k)" opacity=".45" style="mix-blend-mode:soft-light"><ellipse cx="328.236" cy="37.931" fill="#EDEDF0" rx="328.236" ry="37.931" transform="matrix(-.95334 .30189 -.65607 -.7547 1779.67 1548.86)"/></g><g filter="url(#l)" opacity=".65"><path fill="#FE9567" fill-opacity=".5" d="M836.697 1187.86 2538.69 1063.9l-1431.5-136.501-270.493 260.461Z"/></g><defs><filter id="a" width="2507.26" height="1455.53" x=".587" y="736.943" color-interpolation-filters="sRGB" filterUnits="userSpaceOnUse"><feFlood flood-opacity="0" result="BackgroundImageFix"/><feBlend in="SourceGraphic" in2="BackgroundImageFix" result="shape"/><feGaussianBlur result="effect1_foregroundBlur_7_666" stdDeviation="180.206"/></filter><filter id="b" width="1310.5" height="1388.35" x="879.771" y="727.93" color-interpolation-filters="sRGB" filterUnits="userSpaceOnUse"><feFlood flood-opacity="0" result="BackgroundImageFix"/><feBlend in="SourceGraphic" in2="BackgroundImageFix" result="shape"/><feGaussianBlur result="effect1_foregroundBlur_7_666" stdDeviation="132.713"/></filter><filter id="c" width="2016.71" height="908.31" x="324.268" y="970.431" color-interpolation-filters="sRGB" filterUnits="userSpaceOnUse"><feFlood flood-opacity="0" result="BackgroundImageFix"/><feBlend in="SourceGraphic" in2="BackgroundImageFix" result="shape"/><feGaussianBlur result="effect1_foregroundBlur_7_666" stdDeviation="132.713"/></filter><filter id="e" width="1120.51" height="743.104" x="1194.45" y="716.107" color-interpolation-filters="sRGB" filterUnits="userSpaceOnUse"><feFlood flood-opacity="0" result="BackgroundImageFix"/><feBlend in="SourceGraphic" in2="BackgroundImageFix" result="shape"/><feGaussianBlur result="effect1_foregroundBlur_7_666" stdDeviation="108.124"/></filter><filter id="f" width="2103.86" height="1782.33" x="401.757" y="569.361" color-interpolation-filters="sRGB" filterUnits="userSpaceOnUse"><feFlood flood-opacity="0" result="BackgroundImageFix"/><feBlend in="SourceGraphic" in2="BackgroundImageFix" result="shape"/><feGaussianBlur result="effect1_foregroundBlur_7_666" stdDeviation="250.098"/></filter><filter id="g" width="2424.83" height="2009.77" x="921.32" y=".803" color-interpolation-filters="sRGB" filterUnits="userSpaceOnUse"><feFlood flood-opacity="0" result="BackgroundImageFix"/><feBlend in="SourceGraphic" in2="BackgroundImageFix" result="shape"/><feGaussianBlur result="effect1_foregroundBlur_7_666" stdDeviation="250.098"/></filter><filter id="h" width="1168.89" height="550.144" x="667.023" y="1073.51" color-interpolation-filters="sRGB" filterUnits="userSpaceOnUse"><feFlood flood-opacity="0" result="BackgroundImageFix"/><feBlend in="SourceGraphic" in2="BackgroundImageFix" result="shape"/><feGaussianBlur result="effect1_foregroundBlur_7_666" stdDeviation="63.072"/></filter><filter id="i" width="920.626" height="437.824" x="611.032" y="1183.56" color-interpolation-filters="sRGB" filterUnits="userSpaceOnUse"><feFlood flood-opacity="0" result="BackgroundImageFix"/><feBlend in="SourceGraphic" in2="BackgroundImageFix" result="shape"/><feGaussianBlur result="effect1_foregroundBlur_7_666" stdDeviation="50.02"/></filter><filter id="j" width="972.026" height="486.801" x="1065.68" y="1174.22" color-interpolation-filters="sRGB" filterUnits="userSpaceOnUse"><feFlood flood-opacity="0" result="BackgroundImageFix"/><feBlend in="SourceGraphic" in2="BackgroundImageFix" result="shape"/><feGaussianBlur result="effect1_foregroundBlur_7_666" stdDeviation="63.072"/></filter><filter id="k" width="880.141" height="458.628" x="1001.79" y="1390.01" color-interpolation-filters="sRGB" filterUnits="userSpaceOnUse"><feFlood flood-opacity="0" result="BackgroundImageFix"/><feBlend in="SourceGraphic" in2="BackgroundImageFix" result="shape"/><feGaussianBlur result="effect1_foregroundBlur_7_666" stdDeviation="63.072"/></filter><filter id="l" width="2134.49" height="692.952" x="620.45" y="711.151" color-interpolation-filters="sRGB" filterUnits="userSpaceOnUse"><feFlood flood-opacity="0" result="BackgroundImageFix"/><feBlend in="SourceGraphic" in2="BackgroundImageFix" result="shape"/><feGaussianBlur result="effect1_foregroundBlur_7_666" stdDeviation="108.124"/></filter><linearGradient id="d" x1="1807.41" x2="1446.35" y1="1265.53" y2="1782.95" gradientUnits="userSpaceOnUse"><stop stop-color="#FE9567"/><stop offset="1" stop-color="#F02E65"/></linearGradient></defs></svg>

<svg width="3347" height="2352" viewBox="0 0 3347 2352" fill="none" xmlns="http://www.w3.org/2000/svg">
<g opacity="0.55" filter="url(#filter0_f_7_666)">
<path d="M361 1832.06L2147.43 1399.4L1198.19 1097.36L361 1832.06Z" fill="#FD366E"/>
</g>
<g opacity="0.55" filter="url(#filter1_f_7_666)">
<path d="M1145.2 1850.86L1924.84 1211.27L1502.7 993.355L1145.2 1850.86Z" fill="#FE9567"/>
</g>
<g opacity="0.55" filter="url(#filter2_f_7_666)">
<path d="M589.694 1613.32L2075.55 1253.13L1169.69 1235.86L589.694 1613.32Z" fill="url(#paint0_linear_7_666)"/>
</g>
<g opacity="0.4" filter="url(#filter3_f_7_666)">
<path d="M1410.69 1242.96L2009.63 1239.68C2088.43 1239.25 2127.83 1167.54 2073.71 1123.06L1841.67 932.355L1410.69 1242.96Z" fill="white"/>
</g>
<g filter="url(#filter4_f_7_666)">
<path d="M1393.58 1069.56L901.953 1636.74L1737.35 1851.49L2005.42 1369.49L1393.58 1069.56Z" fill="#FD366E" fill-opacity="0.6"/>
</g>
<g opacity="0.4" filter="url(#filter5_f_7_666)">
<path d="M2056.15 501L1421.52 1233.16L2499.91 1510.38L2845.95 888.174L2056.15 501Z" fill="#FD366E" fill-opacity="0.6"/>
</g>
<g style="mix-blend-mode:soft-light" opacity="0.45" filter="url(#filter6_f_7_666)">
<ellipse cx="479.672" cy="45.906" rx="479.672" ry="45.906" transform="matrix(-0.953344 0.301888 -0.656066 -0.754703 1738.88 1238.42)" fill="#EDEDF0"/>
</g>
<g style="mix-blend-mode:overlay" opacity="0.35" filter="url(#filter7_f_7_666)">
<ellipse cx="376.561" cy="45.906" rx="376.561" ry="45.906" transform="matrix(-0.953344 0.301888 -0.656066 -0.754703 1460.45 1323.44)" fill="#EDEDF0"/>
</g>
<g style="mix-blend-mode:soft-light" opacity="0.45" filter="url(#filter8_f_7_666)">
<ellipse cx="376.561" cy="37.9305" rx="376.561" ry="37.9305" transform="matrix(-0.953344 0.301888 -0.656066 -0.754703 1935.57 1332.57)" fill="#EDEDF0"/>
</g>
<g style="mix-blend-mode:soft-light" opacity="0.45" filter="url(#filter9_f_7_666)">
<ellipse cx="328.236" cy="37.9305" rx="328.236" ry="37.9305" transform="matrix(-0.953344 0.301888 -0.656066 -0.754703 1779.67 1548.86)" fill="#EDEDF0"/>
</g>
<g opacity="0.65" filter="url(#filter10_f_7_666)">
<path d="M836.697 1187.86L2538.69 1063.9L1107.19 927.399L836.697 1187.86Z" fill="#FE9567" fill-opacity="0.5"/>
</g>
<defs>
<filter id="filter0_f_7_666" x="0.58725" y="736.943" width="2507.26" height="1455.53" filterUnits="userSpaceOnUse" color-interpolation-filters="sRGB">
<feFlood flood-opacity="0" result="BackgroundImageFix"/>
<feBlend mode="normal" in="SourceGraphic" in2="BackgroundImageFix" result="shape"/>
<feGaussianBlur stdDeviation="180.206" result="effect1_foregroundBlur_7_666"/>
</filter>
<filter id="filter1_f_7_666" x="879.771" y="727.93" width="1310.5" height="1388.35" filterUnits="userSpaceOnUse" color-interpolation-filters="sRGB">
<feFlood flood-opacity="0" result="BackgroundImageFix"/>
<feBlend mode="normal" in="SourceGraphic" in2="BackgroundImageFix" result="shape"/>
<feGaussianBlur stdDeviation="132.713" result="effect1_foregroundBlur_7_666"/>
</filter>
<filter id="filter2_f_7_666" x="324.268" y="970.431" width="2016.71" height="908.31" filterUnits="userSpaceOnUse" color-interpolation-filters="sRGB">
<feFlood flood-opacity="0" result="BackgroundImageFix"/>
<feBlend mode="normal" in="SourceGraphic" in2="BackgroundImageFix" result="shape"/>
<feGaussianBlur stdDeviation="132.713" result="effect1_foregroundBlur_7_666"/>
</filter>
<filter id="filter3_f_7_666" x="1194.45" y="716.107" width="1120.51" height="743.104" filterUnits="userSpaceOnUse" color-interpolation-filters="sRGB">
<feFlood flood-opacity="0" result="BackgroundImageFix"/>
<feBlend mode="normal" in="SourceGraphic" in2="BackgroundImageFix" result="shape"/>
<feGaussianBlur stdDeviation="108.124" result="effect1_foregroundBlur_7_666"/>
</filter>
<filter id="filter4_f_7_666" x="401.757" y="569.361" width="2103.86" height="1782.33" filterUnits="userSpaceOnUse" color-interpolation-filters="sRGB">
<feFlood flood-opacity="0" result="BackgroundImageFix"/>
<feBlend mode="normal" in="SourceGraphic" in2="BackgroundImageFix" result="shape"/>
<feGaussianBlur stdDeviation="250.098" result="effect1_foregroundBlur_7_666"/>
</filter>
<filter id="filter5_f_7_666" x="921.32" y="0.803375" width="2424.83" height="2009.77" filterUnits="userSpaceOnUse" color-interpolation-filters="sRGB">
<feFlood flood-opacity="0" result="BackgroundImageFix"/>
<feBlend mode="normal" in="SourceGraphic" in2="BackgroundImageFix" result="shape"/>
<feGaussianBlur stdDeviation="250.098" result="effect1_foregroundBlur_7_666"/>
</filter>
<filter id="filter6_f_7_666" x="667.023" y="1073.51" width="1168.89" height="550.144" filterUnits="userSpaceOnUse" color-interpolation-filters="sRGB">
<feFlood flood-opacity="0" result="BackgroundImageFix"/>
<feBlend mode="normal" in="SourceGraphic" in2="BackgroundImageFix" result="shape"/>
<feGaussianBlur stdDeviation="63.0722" result="effect1_foregroundBlur_7_666"/>
</filter>
<filter id="filter7_f_7_666" x="611.032" y="1183.56" width="920.626" height="437.824" filterUnits="userSpaceOnUse" color-interpolation-filters="sRGB">
<feFlood flood-opacity="0" result="BackgroundImageFix"/>
<feBlend mode="normal" in="SourceGraphic" in2="BackgroundImageFix" result="shape"/>
<feGaussianBlur stdDeviation="50.0197" result="effect1_foregroundBlur_7_666"/>
</filter>
<filter id="filter8_f_7_666" x="1065.68" y="1174.22" width="972.026" height="486.801" filterUnits="userSpaceOnUse" color-interpolation-filters="sRGB">
<feFlood flood-opacity="0" result="BackgroundImageFix"/>
<feBlend mode="normal" in="SourceGraphic" in2="BackgroundImageFix" result="shape"/>
<feGaussianBlur stdDeviation="63.0722" result="effect1_foregroundBlur_7_666"/>
</filter>
<filter id="filter9_f_7_666" x="1001.79" y="1390.01" width="880.141" height="458.628" filterUnits="userSpaceOnUse" color-interpolation-filters="sRGB">
<feFlood flood-opacity="0" result="BackgroundImageFix"/>
<feBlend mode="normal" in="SourceGraphic" in2="BackgroundImageFix" result="shape"/>
<feGaussianBlur stdDeviation="63.0722" result="effect1_foregroundBlur_7_666"/>
</filter>
<filter id="filter10_f_7_666" x="620.45" y="711.151" width="2134.49" height="692.952" filterUnits="userSpaceOnUse" color-interpolation-filters="sRGB">
<feFlood flood-opacity="0" result="BackgroundImageFix"/>
<feBlend mode="normal" in="SourceGraphic" in2="BackgroundImageFix" result="shape"/>
<feGaussianBlur stdDeviation="108.124" result="effect1_foregroundBlur_7_666"/>
</filter>
<linearGradient id="paint0_linear_7_666" x1="1807.41" y1="1265.53" x2="1446.35" y2="1782.95" gradientUnits="userSpaceOnUse">
<stop stop-color="#FE9567"/>
<stop offset="1" stop-color="#F02E65"/>
</linearGradient>
</defs>
</svg>
